packages/tokens/icons/sfArticle/size24Px.svg

<svg viewBox="0 0 24 24" fill="none" xmlns="http://www.w3.org/2000/svg" width="1em" height="1em"><rect x="4.5" y="2.5" width="15" height="19" rx="1.5" stroke="currentColor"/><path d="M7.5 13.5L16.5 13.5M7.5 15.5L16.5 15.5M7.5 17.5H13.5" stroke="currentColor" stroke-linecap="round"/><path d="M11.367 4.90546C11.6553 4.74615 11.99 4.6564 12.3436 4.6564C12.8931 4.6564 13.3993 4.87362 13.7552 5.23378C13.9225 5.19678 14.0968 5.1773 14.2753 5.1773C15.4535 5.1773 16.5 6.04879 16.5 7.23075C16.5 8.41279 15.4535 9.2843 14.2753 9.2843M11.367 4.90546L11.4154 5.47142C11.6645 5.2751 11.9889 5.1564 12.3436 5.1564C12.8717 5.1564 13.3324 5.41934 13.5778 5.80969C13.791 5.72462 14.027 5.6773 14.2753 5.6773C15.2278 5.6773 16 6.37282 16 7.23075C16 8.08877 15.2278 8.7843 14.2753 8.7843M11.367 4.90546C11.013 4.64858 10.5685 4.5 10.0937 4.5C9.01487 4.5 8.03983 5.29181 8.03983 6.38554C8.03983 6.50669 8.05233 6.62512 8.07607 6.73973C7.72897 7.04396 7.5 7.48001 7.5 7.9801C7.5 8.96748 8.369 9.68289 9.33137 9.68481C9.68439 10.1879 10.2949 10.5 10.9595 10.5C11.5722 10.5 12.1375 10.2354 12.4988 9.80103M11.367 4.90546L8.66769 6.93656C8.2686 7.14486 8 7.5342 8 7.9801C8 8.6455 8.59784 9.18482 9.33527 9.18482C9.42941 9.18482 9.52115 9.17606 9.60969 9.15927C9.81231 9.65006 10.3402 10 10.9595 10C11.5543 10 12.0646 9.67743 12.2837 9.21738M14.2753 9.2843V9.14077C14.2379 9.18986 14.1978 9.23677 14.1552 9.28136M14.2753 9.2843C14.2754 9.2843 14.2755 9.2843 14.2756 9.2843L14.2755 9.14052C14.3051 9.10167 14.333 9.06145 14.3591 9.01993L14.2754 8.96741L14.2753 8.7843M14.2753 9.2843C14.2352 9.28431 14.1952 9.28333 14.1552 9.28136M14.1552 9.28136C14.0517 9.27625 13.9487 9.26449 13.8469 9.24614L13.9356 8.75407M14.1552 9.28136C13.8264 9.62521 13.3497 9.83074 12.8352 9.83074C12.7205 9.83074 12.608 9.82056 12.4988 9.80103M13.9356 8.75407L14.2753 8.96735V8.7843M13.9356 8.75407C13.7196 9.09821 13.3078 9.33074 12.8352 9.33074C12.6374 9.33074 12.4503 9.28994 12.2837 9.21738M13.9356 8.75407C14.0474 8.77423 14.1612 8.78436 14.2753 8.7843M12.4988 9.80103C12.592 9.6889 12.6717 9.56545 12.7351 9.43232L12.2837 9.21738M12.4988 9.80103C12.3539 9.77512 12.2148 9.73274 12.084 9.6758L12.2837 9.21738" stroke="currentColor"/></svg>

<svg xmlns="http://www.w3.org/2000/svg" fill="none" viewBox="0 0 24 24" width="1em" height="1em"><rect width="15" height="19" x="4.5" y="2.5" stroke="currentColor" rx="1.5"/><path stroke="currentColor" stroke-linecap="round" d="M7.5 13.5h9m-9 2h9m-9 2h6"/><path stroke="currentColor" d="M11.367 4.905a2.02 2.02 0 0 1 .977-.249c.55 0 1.055.218 1.411.578.167-.037.342-.057.52-.057 1.178 0 2.225.872 2.225 2.054s-1.046 2.053-2.225 2.053m-2.908-4.379.048.566c.25-.196.574-.315.929-.315.528 0 .988.263 1.234.654a1.88 1.88 0 0 1 .697-.133c.953 0 1.725.696 1.725 1.554 0 .858-.772 1.553-1.725 1.553m-2.908-3.879a2.167 2.167 0 0 0-1.273-.405c-1.08 0-2.054.792-2.054 1.886 0 .12.012.24.036.354-.347.304-.576.74-.576 1.24 0 .987.869 1.703 1.831 1.705.353.503.964.815 1.629.815a2 2 0 0 0 1.539-.699m-1.132-4.896-2.7 2.032C8.27 7.145 8 7.534 8 7.98c0 .665.598 1.205 1.335 1.205.094 0 .186-.009.275-.026.202.491.73.841 1.35.841.594 0 1.105-.323 1.324-.783m1.991.067v-.143a1.453 1.453 0 0 1-.12.14m.12.003v-.143c.03-.04.058-.08.084-.121l-.084-.053v-.183m0 .5c-.04 0-.08 0-.12-.003m0 0a2.407 2.407 0 0 1-.308-.035l.089-.492m.22.527c-.33.344-.806.55-1.32.55a1.91 1.91 0 0 1-.337-.03m1.437-1.047.34.213v-.183m-.34-.03c-.216.344-.628.577-1.1.577a1.38 1.38 0 0 1-.552-.114m1.652-.463c.111.02.225.03.34.03m-1.777 1.017c.093-.112.173-.236.236-.369l-.451-.215m.215.584a1.859 1.859 0 0 1-.415-.125l.2-.459"/></svg>
